SF_Symbols/theatermask.and.paintbrush.svg

<?xml version="1.0" encoding="UTF-8"?>
<svg xmlns="http://www.w3.org/2000/svg" xmlns:xlink="http://www.w3.org/1999/xlink" width="24" height="24" viewBox="0 0 24 24" version="1.1">
<g id="surface1">
<path style=" stroke:none;fill-rule:nonzero;fill:rgb(100%,100%,100%);fill-opacity:1;" d="M 2.503906 11.992188 C 2.871094 13.382812 3.433594 14.523438 4.191406 15.402344 C 4.953125 16.285156 5.867188 16.886719 6.9375 17.210938 C 8.007812 17.539062 9.195312 17.566406 10.507812 17.296875 C 10.640625 17.265625 10.769531 17.238281 10.894531 17.210938 C 11.023438 17.179688 11.15625 17.152344 11.289062 17.128906 L 11.148438 15.535156 C 11.066406 15.566406 10.996094 15.589844 10.941406 15.609375 C 10.882812 15.628906 10.835938 15.644531 10.789062 15.65625 C 10.746094 15.667969 10.703125 15.679688 10.660156 15.695312 C 9.015625 16.125 7.609375 15.980469 6.441406 15.261719 C 5.273438 14.542969 4.457031 13.320312 3.992188 11.597656 L 2.429688 5.746094 C 2.335938 5.410156 2.351562 5.125 2.476562 4.894531 C 2.605469 4.664062 2.84375 4.503906 3.1875 4.414062 L 11.484375 2.183594 C 11.828125 2.097656 12.113281 2.121094 12.335938 2.257812 C 12.5625 2.390625 12.722656 2.632812 12.816406 2.980469 L 14.382812 8.8125 C 14.488281 9.210938 14.5625 9.601562 14.605469 9.976562 C 14.65625 10.34375 14.675781 10.695312 14.664062 11.035156 L 16.132812 9.796875 C 16.085938 9.339844 15.992188 8.878906 15.863281 8.410156 L 14.289062 2.511719 C 14.070312 1.710938 13.6875 1.164062 13.144531 0.863281 C 12.601562 0.554688 11.917969 0.507812 11.101562 0.722656 L 2.765625 2.945312 C 1.945312 3.164062 1.382812 3.539062 1.070312 4.078125 C 0.757812 4.609375 0.710938 5.28125 0.929688 6.09375 Z M 6.101562 8.671875 C 6.402344 8.601562 6.636719 8.605469 6.804688 8.679688 C 6.980469 8.75 7.128906 8.769531 7.246094 8.738281 C 7.347656 8.71875 7.414062 8.65625 7.445312 8.550781 C 7.480469 8.4375 7.476562 8.304688 7.433594 8.148438 C 7.339844 7.773438 7.121094 7.488281 6.777344 7.292969 C 6.433594 7.101562 6.082031 7.058594 5.71875 7.171875 C 5.332031 7.265625 5.039062 7.480469 4.835938 7.820312 C 4.636719 8.148438 4.589844 8.5 4.695312 8.867188 C 4.746094 9.03125 4.8125 9.152344 4.894531 9.234375 C 4.980469 9.308594 5.070312 9.335938 5.15625 9.308594 C 5.28125 9.273438 5.394531 9.179688 5.492188 9.027344 C 5.601562 8.878906 5.804688 8.757812 6.101562 8.671875 Z M 11.089844 7.332031 C 11.390625 7.242188 11.625 7.242188 11.792969 7.320312 C 11.960938 7.398438 12.109375 7.417969 12.234375 7.386719 C 12.328125 7.363281 12.390625 7.296875 12.421875 7.191406 C 12.460938 7.085938 12.460938 6.957031 12.421875 6.804688 C 12.320312 6.425781 12.101562 6.140625 11.765625 5.953125 C 11.429688 5.765625 11.070312 5.722656 10.695312 5.820312 C 10.316406 5.921875 10.023438 6.136719 9.824219 6.46875 C 9.625 6.800781 9.578125 7.152344 9.683594 7.527344 C 9.726562 7.683594 9.789062 7.800781 9.871094 7.875 C 9.960938 7.949219 10.046875 7.976562 10.132812 7.960938 C 10.265625 7.921875 10.382812 7.828125 10.480469 7.679688 C 10.585938 7.523438 10.789062 7.40625 11.089844 7.332031 Z M 10.164062 13.734375 C 10.980469 13.507812 11.636719 13.109375 12.132812 12.535156 C 12.632812 11.953125 12.890625 11.273438 12.910156 10.5 C 12.914062 10.300781 12.851562 10.171875 12.710938 10.117188 C 12.574219 10.054688 12.417969 10.085938 12.242188 10.21875 C 11.78125 10.550781 11.304688 10.804688 10.808594 10.988281 C 10.316406 11.167969 9.90625 11.304688 9.582031 11.390625 C 9.242188 11.492188 8.804688 11.585938 8.269531 11.679688 C 7.738281 11.773438 7.179688 11.792969 6.589844 11.738281 C 6.390625 11.707031 6.242188 11.753906 6.148438 11.878906 C 6.054688 12.003906 6.0625 12.148438 6.167969 12.308594 C 6.582031 12.960938 7.144531 13.414062 7.855469 13.679688 C 8.574219 13.933594 9.34375 13.953125 10.164062 13.734375 Z M 7.304688 22.339844 C 7.726562 22.746094 8.207031 23.070312 8.738281 23.304688 C 9.269531 23.550781 9.820312 23.710938 10.398438 23.785156 C 10.976562 23.867188 11.554688 23.863281 12.121094 23.773438 C 12.691406 23.695312 13.226562 23.527344 13.734375 23.277344 C 14.246094 23.035156 14.695312 22.707031 15.085938 22.292969 C 15.640625 21.710938 16.007812 21.085938 16.191406 20.410156 C 16.378906 19.742188 16.375 19.082031 16.179688 18.429688 C 15.992188 17.773438 15.609375 17.175781 15.027344 16.632812 C 14.484375 16.117188 13.910156 15.769531 13.304688 15.582031 C 12.703125 15.394531 12.117188 15.371094 11.550781 15.515625 C 10.980469 15.652344 10.476562 15.960938 10.03125 16.433594 C 9.71875 16.765625 9.507812 17.101562 9.402344 17.445312 C 9.304688 17.785156 9.246094 18.109375 9.234375 18.421875 C 9.226562 18.734375 9.207031 19.023438 9.167969 19.285156 C 9.136719 19.554688 9.039062 19.78125 8.867188 19.96875 C 8.664062 20.179688 8.449219 20.324219 8.230469 20.398438 C 8.019531 20.476562 7.816406 20.539062 7.621094 20.597656 C 7.429688 20.652344 7.257812 20.757812 7.117188 20.914062 C 6.953125 21.097656 6.875 21.316406 6.882812 21.570312 C 6.886719 21.828125 7.027344 22.085938 7.304688 22.339844 Z M 9.167969 21.871094 C 9.09375 21.816406 9.050781 21.757812 9.039062 21.695312 C 9.03125 21.632812 9.042969 21.574219 9.074219 21.523438 C 9.113281 21.476562 9.183594 21.425781 9.289062 21.375 C 9.402344 21.324219 9.527344 21.253906 9.664062 21.160156 C 9.804688 21.070312 9.925781 20.949219 10.03125 20.792969 C 10.210938 20.53125 10.332031 20.257812 10.386719 19.976562 C 10.449219 19.695312 10.492188 19.414062 10.519531 19.132812 C 10.542969 18.847656 10.59375 18.566406 10.667969 18.289062 C 10.75 18.015625 10.902344 17.753906 11.128906 17.503906 C 11.371094 17.226562 11.660156 17.050781 11.992188 16.96875 C 12.328125 16.882812 12.679688 16.894531 13.039062 17.007812 C 13.402344 17.113281 13.75 17.316406 14.082031 17.617188 C 14.457031 17.953125 14.699219 18.335938 14.8125 18.757812 C 14.925781 19.179688 14.914062 19.605469 14.785156 20.042969 C 14.652344 20.480469 14.410156 20.898438 14.054688 21.289062 C 13.753906 21.628906 13.402344 21.898438 13.003906 22.105469 C 12.601562 22.3125 12.179688 22.445312 11.738281 22.507812 C 11.292969 22.570312 10.851562 22.550781 10.40625 22.445312 C 9.960938 22.34375 9.550781 22.152344 9.167969 21.871094 Z M 15.957031 18.5625 C 16.445312 18.417969 16.882812 18.179688 17.277344 17.851562 C 17.679688 17.519531 18.074219 17.074219 18.46875 16.519531 C 18.875 15.9375 19.261719 15.304688 19.632812 14.625 C 20.007812 13.9375 20.355469 13.242188 20.679688 12.535156 C 21.011719 11.820312 21.3125 11.132812 21.582031 10.472656 C 21.855469 9.804688 22.097656 9.195312 22.304688 8.644531 C 22.507812 8.09375 22.675781 7.636719 22.800781 7.273438 C 22.929688 6.90625 23.011719 6.671875 23.042969 6.570312 C 23.226562 6.070312 23.257812 5.621094 23.136719 5.222656 C 23.023438 4.816406 22.816406 4.5 22.507812 4.273438 C 22.203125 4.042969 21.839844 3.941406 21.421875 3.964844 C 21.007812 3.992188 20.589844 4.179688 20.164062 4.539062 C 20.078125 4.613281 19.898438 4.785156 19.621094 5.054688 C 19.347656 5.316406 19.007812 5.652344 18.601562 6.066406 C 18.195312 6.472656 17.746094 6.933594 17.257812 7.453125 C 16.777344 7.964844 16.28125 8.511719 15.769531 9.09375 C 15.257812 9.667969 14.757812 10.257812 14.269531 10.867188 C 13.78125 11.464844 13.335938 12.058594 12.929688 12.648438 C 12.554688 13.191406 12.273438 13.703125 12.09375 14.183594 C 11.917969 14.664062 11.839844 15.15625 11.859375 15.65625 L 13.386719 15.796875 C 13.332031 15.460938 13.367188 15.105469 13.492188 14.738281 C 13.621094 14.363281 13.847656 13.953125 14.164062 13.507812 C 14.570312 12.941406 15.011719 12.367188 15.488281 11.785156 C 15.96875 11.195312 16.460938 10.625 16.960938 10.070312 C 17.460938 9.507812 17.945312 8.976562 18.414062 8.484375 C 18.882812 7.984375 19.304688 7.539062 19.6875 7.152344 C 20.074219 6.757812 20.394531 6.441406 20.644531 6.195312 C 20.894531 5.945312 21.046875 5.789062 21.101562 5.726562 C 21.195312 5.632812 21.292969 5.597656 21.394531 5.617188 C 21.492188 5.628906 21.570312 5.679688 21.617188 5.773438 C 21.667969 5.863281 21.664062 5.96875 21.609375 6.09375 C 21.578125 6.164062 21.503906 6.367188 21.382812 6.703125 C 21.273438 7.035156 21.117188 7.464844 20.925781 7.996094 C 20.730469 8.523438 20.503906 9.109375 20.242188 9.757812 C 19.976562 10.402344 19.6875 11.070312 19.367188 11.765625 C 19.054688 12.453125 18.71875 13.132812 18.355469 13.800781 C 18 14.46875 17.621094 15.085938 17.222656 15.65625 C 16.914062 16.101562 16.617188 16.4375 16.332031 16.667969 C 16.050781 16.894531 15.753906 17.050781 15.441406 17.136719 Z M 17.175781 15.957031 L 18.308594 15.441406 C 18.195312 15.007812 17.996094 14.601562 17.710938 14.222656 C 17.421875 13.835938 17.078125 13.496094 16.679688 13.210938 C 16.285156 12.921875 15.859375 12.707031 15.402344 12.5625 C 14.953125 12.417969 14.507812 12.367188 14.070312 12.402344 L 13.882812 13.660156 C 14.171875 13.597656 14.492188 13.625 14.851562 13.742188 C 15.210938 13.855469 15.558594 14.03125 15.890625 14.269531 C 16.226562 14.5 16.511719 14.765625 16.742188 15.066406 C 16.980469 15.359375 17.125 15.65625 17.175781 15.957031 Z M 17.175781 15.957031 "/>
</g>
</svg>

<svg xmlns="http://www.w3.org/2000/svg" width="24" height="24"><path style="stroke:none;fill-rule:nonzero;fill:#fff;fill-opacity:1" d="M2.504 11.992c.367 1.39.93 2.531 1.687 3.41.762.883 1.676 1.485 2.747 1.809 1.07.328 2.257.355 3.57.086.133-.031.262-.059.387-.086.128-.031.261-.059.394-.082l-.14-1.594c-.083.031-.153.055-.208.074-.058.02-.105.036-.152.047-.043.012-.086.024-.129.04-1.644.429-3.05.284-4.219-.434-1.168-.719-1.984-1.942-2.449-3.664L2.43 5.746c-.094-.336-.078-.621.047-.851.128-.23.367-.391.71-.48l8.297-2.231c.344-.086.63-.063.852.074.226.133.387.375.48.722l1.567 5.833c.105.398.18.789.222 1.164.051.367.07.718.06 1.058l1.468-1.238a8.364 8.364 0 0 0-.27-1.387L14.29 2.512c-.219-.801-.601-1.348-1.144-1.649-.543-.308-1.227-.355-2.043-.14L2.766 2.945c-.82.22-1.383.594-1.696 1.133C.758 4.61.71 5.281.93 6.094Zm3.598-3.32c.3-.07.535-.067.703.008.175.07.324.09.441.058.102-.02.168-.082.2-.187a.705.705 0 0 0-.012-.403 1.31 1.31 0 0 0-.657-.855 1.291 1.291 0 0 0-1.058-.121 1.357 1.357 0 0 0-.883.648c-.2.328-.246.68-.14 1.047.05.164.117.285.199.367.085.075.175.102.261.075.125-.036.239-.13.336-.282.11-.148.313-.27.61-.355Zm4.988-1.34c.3-.09.535-.09.703-.012.168.078.316.098.441.067.094-.024.157-.09.188-.196a.653.653 0 0 0 0-.386 1.337 1.337 0 0 0-.656-.852 1.403 1.403 0 0 0-1.07-.133c-.368.09-.68.325-.872.649-.199.332-.246.683-.14 1.058.027.133.093.25.187.348.09.074.176.102.262.086a.651.651 0 0 0 .347-.281c.106-.157.31-.274.61-.348Zm-.926 6.402c.816-.226 1.473-.625 1.969-1.199.5-.582.758-1.262.777-2.035.004-.2-.058-.328-.2-.383-.136-.062-.292-.031-.468.102-.46.332-.937.586-1.433.77-.493.179-.903.316-1.227.402-.34.101-.777.195-1.312.289a6.37 6.37 0 0 1-1.68.058c-.2-.031-.348.016-.442.14-.093.126-.085.27.02.43a3.332 3.332 0 0 0 1.687 1.372c.72.254 1.489.273 2.31.054Zm-2.86 8.606c.423.406.903.73 1.434.965a5.59 5.59 0 0 0 1.66.48c.57.082 1.153.078 1.723-.012a5.299 5.299 0 0 0 1.613-.496c.512-.242.961-.57 1.352-.984.555-.582.922-1.207 1.105-1.883a3.487 3.487 0 0 0-.011-1.98c-.188-.657-.57-1.254-1.153-1.797-.543-.516-1.117-.863-1.722-1.051a3.153 3.153 0 0 0-1.754-.066c-.57.136-1.074.445-1.52.918-.312.332-.523.668-.629 1.011a4.124 4.124 0 0 0-.168.977c-.004.289-.027.578-.066.863a1.174 1.174 0 0 1-.3.684c-.204.21-.419.355-.638.43-.21.078-.414.14-.609.199-.191.054-.363.16-.504.316a.903.903 0 0 0-.234.656c.004.258.144.516.422.77Zm1.864-.469c-.074-.055-.117-.113-.129-.176a.265.265 0 0 1 .035-.172.683.683 0 0 1 .215-.148c.113-.05.238-.121.375-.215.14-.09.262-.21.367-.367.18-.262.301-.535.356-.816.062-.282.105-.563.133-.844.023-.285.074-.567.148-.844.082-.273.234-.535.46-.785.243-.277.532-.453.864-.535a1.874 1.874 0 0 1 1.047.039c.363.105.711.308 1.043.61.375.335.617.718.73 1.14.114.422.102.847-.027 1.285-.148.465-.398.89-.73 1.246-.301.34-.653.61-1.051.816-.402.207-.824.34-1.266.403a3.557 3.557 0 0 1-1.332-.063c-.449-.105-.87-.3-1.238-.574Zm6.789-3.308a3.703 3.703 0 0 0 1.32-.711c.403-.332.797-.778 1.192-1.332.406-.582.793-1.215 1.164-1.895.375-.684.722-1.383 1.047-2.09.316-.68.617-1.367.902-2.062.273-.668.516-1.278.723-1.828.258-.688.504-1.38.738-2.075.184-.5.215-.949.094-1.347-.114-.407-.32-.723-.63-.95-.304-.23-.667-.332-1.085-.308-.414.027-.832.215-1.258.574-.086.074-.266.246-.543.516-.273.261-.613.597-1.02 1.011a62.835 62.835 0 0 0-2.831 3.028 43.323 43.323 0 0 0-1.5 1.773 27.184 27.184 0 0 0-1.34 1.781c-.375.543-.657 1.055-.836 1.536a3.796 3.796 0 0 0-.235 1.472l1.528.14a2.218 2.218 0 0 1 .105-1.058c.13-.375.356-.785.672-1.23.406-.567.848-1.14 1.324-1.723.48-.59.973-1.16 1.473-1.715.5-.562.984-1.093 1.453-1.586a68.5 68.5 0 0 1 2.23-2.289c.25-.25.403-.406.458-.468.093-.094.191-.13.293-.11.097.008.18.067.222.156.051.09.047.196-.008.32-.03.071-.105.274-.226.61-.11.332-.266.762-.457 1.293-.219.59-.45 1.18-.684 1.762-.277.676-.57 1.344-.875 2.008a31.81 31.81 0 0 1-1.012 2.035c-.34.64-.718 1.261-1.132 1.855-.309.446-.606.781-.891 1.012a2.471 2.471 0 0 1-.89.469Zm1.219-2.606 1.133-.516a3.48 3.48 0 0 0-.598-1.218 4.692 4.692 0 0 0-1.031-1.012 4.38 4.38 0 0 0-1.278-.649 3.426 3.426 0 0 0-1.332-.16l-.187 1.258c.289-.062.61-.035.969.082.359.113.707.29 1.039.528.336.23.62.496.851.796.238.293.383.59.434.891Zm0 0"/></svg>
